dhis-2/dhis-support/dhis-support-system/src/main/resources/SVGs/pregnant_32w_negative.svg

<svg width="48" height="48" viewBox="0 0 48 48" fill="none" xmlns="http://www.w3.org/2000/svg">
<path fill-rule="evenodd" clip-rule="evenodd" d="M0 0V47.9994H47.9994V0H0ZM23.9997 4.00975C31.8826 4.00945 38.2735 10.3999 38.2725 18.2826C38.2735 26.1655 31.8826 32.5564 23.9997 32.5564C16.1168 32.5564 9.72588 26.1655 9.72688 18.2826C9.72618 10.3997 16.1168 4.00875 23.9997 4.00975ZM23.9997 5.96873C17.1988 5.96913 11.6859 11.4819 11.6859 18.2826C11.6859 25.0835 17.1988 30.5964 23.9997 30.5974C30.8006 30.5964 36.3135 25.0835 36.3135 18.2826C36.3135 11.4817 30.8006 5.96873 23.9997 5.96873ZM22.9117 6.66982C23.2217 6.66772 23.5177 6.94901 23.3007 7.30851C22.9807 7.8732 22.4857 8.3306 22.3027 9.06039C22.0877 9.89858 23.3457 9.80478 24.6187 10.0329C28.6766 10.7699 26.7837 12.8658 25.9017 12.8958C24.0447 13.1968 21.6977 12.6588 21.3707 16.5678C21.3877 17.5888 21.7837 18.5148 22.0117 19.4818C22.1307 20.4017 21.9987 21.3107 21.4647 22.2007C21.7297 22.1667 21.9717 22.1497 22.3087 22.0657C23.3357 21.7367 23.7417 21.4617 23.4407 20.8827C22.3647 19.6228 23.1497 18.1288 23.7297 17.4898C24.7477 16.4368 25.2717 15.8278 26.2707 15.5018C27.4547 15.1538 28.4746 16.1558 27.8726 17.0098C26.7137 18.3838 25.1757 19.0508 26.1247 20.1017C26.5147 20.3607 26.6517 20.4477 26.9467 20.7597C27.7017 21.9127 27.7487 22.2827 28.0956 23.3007C28.1026 24.0347 28.4886 24.8537 26.4037 26.0077C24.2287 26.6877 22.6157 27.9347 19.8238 27.9996C17.0628 27.7587 14.9558 25.6687 15.5818 23.7577L16.3478 21.5367C16.9118 20.0097 16.3228 19.5318 15.2358 19.5098L13.6678 19.4668C12.3878 19.4388 11.9119 17.2338 13.3998 16.6758C14.8118 16.2068 16.3758 16.5378 18.1388 16.9038C19.0178 17.0598 19.8838 17.6648 20.2377 18.9358C20.5977 20.2457 20.4147 21.0107 20.3707 21.9157C20.4177 22.1277 20.6067 22.2197 20.8627 22.2497C21.3657 21.2007 21.6157 20.2327 21.4647 19.3928C21.0077 18.1108 20.7457 17.1028 20.7947 16.5348C21.1757 12.6518 23.1167 12.6048 25.0037 12.4278C27.2777 12.2228 26.4807 10.8449 24.2677 10.7639C23.5007 10.7669 21.0437 10.6449 21.3477 9.21278C21.5867 8.219 22.1307 7.7253 22.4467 7.02331C22.5337 6.77421 22.7257 6.67112 22.9117 6.66982ZM31.8296 16.5898C32.7296 16.5888 33.6276 16.9288 34.3136 17.6148C35.6876 18.9868 35.6916 21.2157 34.3196 22.5897C32.9476 23.9647 30.7186 23.9697 29.3456 22.5977C27.9716 21.2257 27.9736 18.9958 29.3456 17.6228C30.0316 16.9358 30.9296 16.5918 31.8296 16.5918V16.5898ZM3.99995 33.9996H43.9995V43.9995H3.99995V33.9996ZM16.0208 35.0956C15.5588 35.0956 15.1338 35.1836 14.7478 35.3606C14.3648 35.5386 14.0668 35.7865 13.8518 36.1035C13.6388 36.4165 13.5328 36.7705 13.5328 37.1675H15.0408C15.0408 36.9135 15.1388 36.7085 15.3338 36.5525C15.5288 36.3925 15.7698 36.3115 16.0588 36.3115C16.3788 36.3115 16.6298 36.3975 16.8108 36.5675C16.9948 36.7385 17.0878 36.9765 17.0878 37.2825C17.0878 37.5995 16.9948 37.8535 16.8108 38.0445C16.6258 38.2355 16.3418 38.3315 15.9588 38.3315H15.1558V39.5115H15.9548C16.7898 39.5115 17.2068 39.8895 17.2068 40.6475C17.2068 40.9615 17.1038 41.2145 16.8978 41.4055C16.6968 41.5935 16.4168 41.6875 16.0588 41.6875C15.7448 41.6875 15.4808 41.5965 15.2658 41.4155C15.0528 41.2345 14.9468 41.0015 14.9468 40.7165H13.4388C13.4388 41.3735 13.6778 41.9025 14.1578 42.3025C14.6418 42.7025 15.2628 42.9035 16.0208 42.9035C16.8318 42.9035 17.4838 42.6995 17.9748 42.2925C18.4688 41.8855 18.7148 41.3445 18.7148 40.6695C18.7148 40.2515 18.6088 39.8895 18.3958 39.5835C18.1878 39.2775 17.8688 39.0475 17.4408 38.8945C17.7858 38.7375 18.0648 38.5145 18.2768 38.2225C18.4898 37.9295 18.5958 37.6095 18.5958 37.2615C18.5958 36.5865 18.3678 36.0585 17.9118 35.6756C17.4558 35.2896 16.8248 35.0956 16.0208 35.0956ZM22.2477 35.0956C21.7367 35.0956 21.2807 35.2046 20.8767 35.4236C20.4727 35.6396 20.1597 35.9395 19.9378 36.3215C19.7178 36.7045 19.6068 37.1265 19.6068 37.5895H21.1207C21.1207 37.2065 21.2187 36.8985 21.4137 36.6655C21.6117 36.4285 21.8817 36.3115 22.2227 36.3115C22.5387 36.3115 22.7827 36.4085 22.9527 36.6035C23.1237 36.7945 23.2087 37.0585 23.2087 37.3955C23.2087 37.6435 23.1277 37.9045 22.9647 38.1795C22.8047 38.4545 22.5537 38.7775 22.2167 39.1455L19.7598 41.7655V42.7985H24.9687V41.5835H21.7007L23.4277 39.7615C23.9007 39.2425 24.2347 38.7895 24.4297 38.3995C24.6247 38.0105 24.7227 37.6275 24.7227 37.2515C24.7227 36.5655 24.5047 36.0355 24.0697 35.6596C23.6387 35.2836 23.0307 35.0956 22.2477 35.0956ZM25.5617 35.1986L27.2477 42.7985H28.8256L30.0616 37.7145L31.2986 42.7985H32.8746L34.5606 35.1986H32.9996L31.9786 40.6065L30.7296 35.1986H29.4036L28.1516 40.5975L27.1227 35.1986H25.5617Z" fill="#333333"/>
</svg>

<?xml version="1.0" encoding="UTF-8" standalone="no"?>
<!-- Created with Inkscape (http://www.inkscape.org/) -->
<svg id="svg8" xmlns:rdf="http://www.w3.org/1999/02/22-rdf-syntax-ns#" xmlns="http://www.w3.org/2000/svg" xmlns:osb="http://www.openswatchbook.org/uri/2009/osb" height="48" width="48" version="1.1" xmlns:cc="http://creativecommons.org/ns#" viewBox="0 0 12.7 12.7" xmlns:dc="http://purl.org/dc/elements/1.1/">
 <title id="title4753">UIO-icon</title>
 <metadata id="metadata5">
  <rdf:RDF>
   <cc:Work rdf:about="">
    <dc:format>image/svg+xml</dc:format>
    <dc:type rdf:resource="http://purl.org/dc/dcmitype/StillImage"/>
    <dc:title>UIO-icon</dc:title>
    <dc:creator>
     <cc:Agent>
      <dc:title>Joaquín Urbano</dc:title>
     </cc:Agent>
    </dc:creator>
    <dc:rights>
     <cc:Agent>
      <dc:title>GPL</dc:title>
     </cc:Agent>
    </dc:rights>
   </cc:Work>
  </rdf:RDF>
 </metadata>
 <g id="layer1" transform="translate(0,-284.3)">
  <path id="rect5152" d="m0 0v48h48v-48h-48zm24 4.0098c7.883-0.0003 14.274 6.3902 14.273 14.273 0.001 7.883-6.39 14.274-14.273 14.274s-14.274-6.391-14.273-14.274c-0.0007-7.883 6.39-14.274 14.273-14.273zm0 1.959c-6.801 0.0004-12.314 5.5132-12.314 12.314 0 6.801 5.513 12.314 12.314 12.315 6.801-0.001 12.314-5.514 12.314-12.315s-5.513-12.314-12.314-12.314zm-1.088 0.7011c0.31-0.0021 0.606 0.2792 0.389 0.6387-0.32 0.5647-0.815 1.0221-0.998 1.7519-0.215 0.8382 1.043 0.7444 2.316 0.9725 4.058 0.737 2.165 2.833 1.283 2.863-1.857 0.301-4.204-0.237-4.531 3.672 0.017 1.021 0.413 1.947 0.641 2.914 0.119 0.92-0.013 1.829-0.547 2.719 0.265-0.034 0.507-0.051 0.844-0.135 1.027-0.329 1.433-0.604 1.132-1.183-1.076-1.26-0.291-2.754 0.289-3.393 1.018-1.053 1.542-1.662 2.541-1.988 1.184-0.348 2.204 0.654 1.602 1.508-1.159 1.374-2.697 2.041-1.748 3.092 0.39 0.259 0.527 0.346 0.822 0.658 0.755 1.153 0.802 1.523 1.149 2.541 0.007 0.734 0.393 1.553-1.692 2.707-2.175 0.68-3.788 1.927-6.58 1.992-2.761-0.241-4.868-2.331-4.242-4.242l0.766-2.221c0.564-1.527-0.025-2.005-1.112-2.027l-1.568-0.043c-1.28-0.028-1.756-2.233-0.268-2.791 1.412-0.469 2.976-0.138 4.739 0.228 0.879 0.156 1.745 0.761 2.099 2.032 0.36 1.31 0.177 2.075 0.133 2.98 0.047 0.212 0.236 0.304 0.492 0.334 0.503-1.049 0.753-2.017 0.602-2.857-0.457-1.282-0.719-2.29-0.67-2.858 0.381-3.883 2.322-3.93 4.209-4.107 2.274-0.205 1.477-1.583-0.736-1.664-0.767 0.003-3.224-0.119-2.92-1.5511 0.239-0.9938 0.783-1.4875 1.099-2.1895 0.087-0.2491 0.279-0.3522 0.465-0.3535zm8.918 9.9201c0.9-0.001 1.798 0.339 2.484 1.025 1.374 1.372 1.378 3.601 0.006 4.975-1.372 1.375-3.601 1.38-4.974 0.008-1.374-1.372-1.372-3.602 0-4.975 0.686-0.687 1.584-1.031 2.484-1.031v-0.002zm-27.83 17.41h40v10h-40v-10zm12.021 1.096c-0.462 0-0.887 0.088-1.273 0.265-0.383 0.178-0.681 0.426-0.896 0.743-0.213 0.313-0.319 0.667-0.319 1.064h1.508c0-0.254 0.098-0.459 0.293-0.615 0.195-0.16 0.436-0.241 0.725-0.241 0.32 0 0.571 0.086 0.752 0.256 0.184 0.171 0.277 0.409 0.277 0.715 0 0.317-0.093 0.571-0.277 0.762-0.185 0.191-0.469 0.287-0.852 0.287h-0.803v1.18h0.799c0.835 0 1.252 0.378 1.252 1.136 0 0.314-0.103 0.567-0.309 0.758-0.201 0.188-0.481 0.282-0.839 0.282-0.314 0-0.578-0.091-0.793-0.272-0.213-0.181-0.319-0.414-0.319-0.699h-1.508c0 0.657 0.239 1.186 0.719 1.586 0.484 0.4 1.105 0.601 1.863 0.601 0.811 0 1.463-0.204 1.954-0.611 0.494-0.407 0.74-0.948 0.74-1.623 0-0.418-0.106-0.78-0.319-1.086-0.208-0.306-0.527-0.536-0.955-0.689 0.345-0.157 0.624-0.38 0.836-0.672 0.213-0.293 0.319-0.613 0.319-0.961 0-0.675-0.228-1.203-0.684-1.586-0.456-0.386-1.087-0.58-1.891-0.58zm6.227 0c-0.511 0-0.967 0.109-1.371 0.328-0.404 0.216-0.717 0.516-0.939 0.898-0.22 0.383-0.331 0.805-0.331 1.268h1.514c0-0.383 0.098-0.691 0.293-0.924 0.198-0.237 0.468-0.354 0.809-0.354 0.316 0 0.56 0.097 0.73 0.292 0.171 0.191 0.256 0.455 0.256 0.792 0 0.248-0.081 0.509-0.244 0.784-0.16 0.275-0.411 0.598-0.748 0.966l-2.457 2.62v1.033h5.209v-1.215h-3.268l1.727-1.822c0.473-0.519 0.807-0.972 1.002-1.362 0.195-0.389 0.293-0.772 0.293-1.148 0-0.686-0.218-1.216-0.653-1.592-0.431-0.376-1.039-0.564-1.822-0.564zm3.314 0.103l1.686 7.6h1.578l1.236-5.084 1.237 5.084h1.576l1.686-7.6h-1.561l-1.021 5.408-1.249-5.408h-1.326l-1.252 5.399-1.029-5.399h-1.561z" fill-rule="evenodd" transform="matrix(.26458 0 0 .26458 0 284.3)" fill="#333"/>
 </g>
</svg>
